X: 304
T: Yinyan he
%%abc-version 2.0
%%abcx-abcm2ps-target-version 5.9.1 (29 Sep 2008)
%%abc-creator hum2abc beta
%%abcx-conversion-date 2013/10/02 07:52:29
%%abc-edited-by Helmut Schaffrath
%%humdrum-veritas 932631756
%%humdrum-veritas-data 1351870089
%%continueall 1
%%barnumbers 0
L: 1/8
M: 2/4
K: G
e ed2 [I:setbarnb 1]| 
e g e e | 
e d c A | 
d3e | 
c d g e | 
d> e d c | 
A d A/ B/ A/ G/ | 
A/ G/ F F/ G/ F/ G/ | 
A/ G/F2G | 
A/ G/F2G | 
A> A d e | 
d3e | 
A> B A G/ E/ | 
G D G E | 
D3E | 
D4 |]  



